X: 54
T: No_48_Tea_Dance_Song_(c).krn
N: Derived from No_48_Tea_Dance_Song_(c).krn
%%abc-version 2.0
%%abcx-abcm2ps-target-version 5.9.1 (29 Sep 2008)
%%abc-creator hum2abc beta
%%abcx-conversion-date 2019/03/15 08:36:49
%%humdrum-veritas 3093578141
%%humdrum-veritas-data 3428038839
%%linebreak <none>
%%barnumbers 0
L: 1/8
M: 3/4
%%staves {1 2}
V: 1 clef=bass
V: 2 clef=bass
K: E
[V:1] B, [I:setbarnb 1]| 
[V:2] z | 
[V:1] E4B, z ||  
[V:2] G,,G,, G,,G,, G,,G,, ||  
[V:1] [M:2/4]E2B,E | 
[V:2] [M:2/4]z4 | 
[V:1] B,2B,2 ||  
[V:2] z4 ||  
[V:1] [M:3/4]B,2G,2G,E- ||  
[V:2] [M:3/4]z6 ||  
[V:1] [M:2/4]E4 | 
[V:2] [M:2/4]z4 | 
[V:1] E2B, z | 
[V:2] z4 | 
[V:1] E2B,E | 
[V:2] z4 | 
[V:1] B,2B,2 | 
[V:2] z4 | 
[V:1] B,2G,2 | 
[V:2] z4 | 
[V:1] B,B, G,B, [I:setbarnb 11]| 
[V:2] z4 | 
[V:1] G,2G,2 | 
[V:2] z4 | 
[V:1] G,F, E,E, | 
[V:2] z4 | 
[V:1] F,F, F, z | 
[V:2] z4 | 
[V:1] F,F,E,2 | 
[V:2] z4 | 
[V:1] F,F, E,F, | 
[V:2] z4 | 
[V:1] E,2E, z | 
[V:2] z4 | 
[V:1] E,2B,,2 | 
[V:2] z4 | 
[V:1] E,!fermata!E, B,,B,, | 
[V:2] z4 | 
[V:1] B,,3B,, | 
[V:2] z4 | 
[V:1] B,,4 ||  
[V:2] z4 ||  
[V:1] [M:3/4]B,,4-B,,G, | 
[V:2] [M:3/4]z6 | 
[V:1] B,4G,2 :|]  
[V:2] z6 :|]  
[V:1] [M:2/4]B,,B,,B,,2 | 
[V:2] [M:2/4]z4 | 
[V:1] B,,B,, B,,B,, | 
[V:2] z4 | 
[V:1] B,,4 |]  
[V:2] z4 |]  



